!!!id: bhatk3202a
!!!vol: 3
!!!page: 202
!!!antara: Jabate pitama parades gavan
!!!raag: bihag
!!!taal: teental
!!!tempo: madhyalaya
**kern
!!data: // >mp  P  P  -/  >S'N  -  N  N/  S'  S'  S'  -/  >NS'  R'  S'  S'/
==1
f#q
4g
4g
2g
=
ccq
2b
4b
4b
=
4cc
4cc
2cc
=
bq
4cc
4dd
4cc
4cc
!!data: // >PS'  -  %S'  -/  N  N  P  -/  >mP  P  N  S'/  [N  -  P]  -/
==2
gq
2cc
2ccS
=
4b
4b
2g
=
f#q
4g
4g
4b
4cc
=
2bH
2gh
!!data: // >SN,  S  G  M/  P  P  >S'N  S'/  S'S'  G'R'  S'N  DP/  MP  MG  RS  >MGM/
==3
cq
4B
4c
4e
4f
=
4g
4g
ccq
4b
4cc
=
8cc
8cc
8ee
8dd
8cc
8b
8a
8g
=
8f
8g
8f
8e
8d
8c
fq
8e
8f
!!data: // >MN  DN  %P  -/  =  =  =  =/  =  =  =  =/  =  =  =  =/
==4
fq
4b
8a
8b
2gS
=
4ryy
4ryy
4ryy
4ryy
=
4ryy
4ryy
4ryy
4ryy
=
4ryy
4ryy
4ryy
4ryy
==
*-
